X:5
T:Murphy's
T:Raheen Reel #3
R:reel
D:i.Paul Smyth and Michael Conney - Up  and Away ii. Kevin Burke - Up Close
B:Seamus Connolly - Forget Me Not
H:Kevin Burke included this previously untitled reel as one of three in his Raheen Medley, 3 tunes which he had learned from the Murphy Brothers of Wexford. Apparently the Murphy brothers had heard the tune at a fleadh in Dingle. According to Jackie Daly the source was likely another Murphy, Denis Murphy of Co. Kerry. Hence the title
S:Clare FM
Z:psc -  http://www.cranfordpub.com
L:1/8
Q:333
M:C|
K:D
D2 DF EDB,E|DCDE FA A/A/A|Beed efde|fdec dBAF|
D/D/D DF EDB,E|DCDE FA A/A/A|Beed efdB|[1AFEF D2 FE:|[2AFEF D2||
|:dB|ABde f2 fg|afdf ed (B/c/d)|ABde f2 bf|afeg fddB|
ABde f2 fg|afdf edBc|dedB Afaf|[1egfe d2:|[2egfe dBAF|]
